;PYCAM-META-DATA: Filename: /home/tristan/Compilation/cnclaser/data/circles.dxf
;PYCAM-META-DATA: Timestamp: 2019-11-04 08:58:28.648889
;PYCAM-META-DATA: Version: 0.5.1
;Estimated machine time: 17 minutes
G40 (disable tool radius compensation)
G49 (disable tool length compensation)
G80 (cancel modal motion)
G54 (select coordinate system 1)
G90 (disable incremental moves)
G21 (metric)
G61 (exact path mode)
F20.00000
S1000.00000
;PYCAM_TOOLPATH_SETTINGS: START
;[Bounds]
;maxz = 0.0
;maxx = 9.3
;maxy = 6.0
;minx = 0.7
;miny = 1.0
;minz = 0.0
;
;[Tool]
;torus_radius = 0.25
;speed = 1000.0
;shape = CylindricalCutter
;tool_radius = 0.5
;feedrate = 20.0
;
;[Process]
;engrave_offset = 0.15
;step_down = 3.0
;generator = EngraveCutter
;postprocessor = SimpleCutter
;milling_style = conventional
;material_allowance = 0.0
;pocketing_type = none
;path_direction = x
;
;PYCAM_TOOLPATH_SETTINGS: END
T1 M6
G0 Z25.0000
M3 (start spindle)
G04 P0 (wait for 0 seconds)
 X8.8493 Y2.0000
G1 Z0.0000
 X8.8330 Y1.8343
 X8.7846 Y1.6750
 X8.7061 Y1.5282
 X8.6005 Y1.3995
 X8.4718 Y1.2939
 X8.3250 Y1.2154
 X8.1657 Y1.1670
 X8.0000 Y1.1507
 X7.8343 Y1.1670
 X7.6750 Y1.2154
 X7.5282 Y1.2939
 X7.3995 Y1.3995
 X7.2939 Y1.5282
 X7.2154 Y1.6750
 X7.1670 Y1.8343
 X7.1507 Y2.0000
 X7.1670 Y2.1657
 X7.2154 Y2.3250
 X7.2939 Y2.4718
 X7.3995 Y2.6005
 X7.5282 Y2.7061
 X7.6750 Y2.7846
 X7.8343 Y2.8330
 X8.0000 Y2.8493
 X8.1657 Y2.8330
 X8.3250 Y2.7846
 X8.4718 Y2.7061
 X8.6005 Y2.6005
 X8.7061 Y2.4718
 X8.7846 Y2.3250
 X8.8330 Y2.1657
 X8.8493 Y2.0000
G0 Z25.0000
 X5.8493
G1 Z0.0000
 X5.8330 Y1.8343
 X5.7846 Y1.6750
 X5.7061 Y1.5282
 X5.6005 Y1.3995
 X5.4718 Y1.2939
 X5.3250 Y1.2154
 X5.1657 Y1.1670
 X5.0000 Y1.1507
 X4.8343 Y1.1670
 X4.6750 Y1.2154
 X4.5282 Y1.2939
 X4.3995 Y1.3995
 X4.2939 Y1.5282
 X4.2154 Y1.6750
 X4.1670 Y1.8343
 X4.1507 Y2.0000
 X4.1670 Y2.1657
 X4.2154 Y2.3250
 X4.2939 Y2.4718
 X4.3995 Y2.6005
 X4.5282 Y2.7061
 X4.6750 Y2.7846
 X4.8343 Y2.8330
 X5.0000 Y2.8493
 X5.1657 Y2.8330
 X5.3250 Y2.7846
 X5.4718 Y2.7061
 X5.6005 Y2.6005
 X5.7061 Y2.4718
 X5.7846 Y2.3250
 X5.8330 Y2.1657
 X5.8493 Y2.0000
G0 Z25.0000
 X2.8493
G1 Z0.0000
 X2.8330 Y1.8343
 X2.7846 Y1.6750
 X2.7061 Y1.5282
 X2.6005 Y1.3995
 X2.4718 Y1.2939
 X2.3250 Y1.2154
 X2.1657 Y1.1670
 X2.0000 Y1.1507
 X1.8343 Y1.1670
 X1.6750 Y1.2154
 X1.5282 Y1.2939
 X1.3995 Y1.3995
 X1.2939 Y1.5282
 X1.2154 Y1.6750
 X1.1670 Y1.8343
 X1.1507 Y2.0000
 X1.1670 Y2.1657
 X1.2154 Y2.3250
 X1.2939 Y2.4718
 X1.3995 Y2.6005
 X1.5282 Y2.7061
 X1.6750 Y2.7846
 X1.8343 Y2.8330
 X2.0000 Y2.8493
 X2.1657 Y2.8330
 X2.3250 Y2.7846
 X2.4718 Y2.7061
 X2.6005 Y2.6005
 X2.7061 Y2.4718
 X2.7846 Y2.3250
 X2.8330 Y2.1657
 X2.8493 Y2.0000
G0 Z25.0000
 Y5.0000
G1 Z0.0000
 X2.8330 Y4.8343
 X2.7846 Y4.6750
 X2.7061 Y4.5282
 X2.6005 Y4.3995
 X2.4718 Y4.2939
 X2.3250 Y4.2154
 X2.1657 Y4.1670
 X2.0000 Y4.1507
 X1.8343 Y4.1670
 X1.6750 Y4.2154
 X1.5282 Y4.2939
 X1.3995 Y4.3995
 X1.2939 Y4.5282
 X1.2154 Y4.6750
 X1.1670 Y4.8343
 X1.1507 Y5.0000
 X1.1670 Y5.1657
 X1.2154 Y5.3250
 X1.2939 Y5.4718
 X1.3995 Y5.6005
 X1.5282 Y5.7061
 X1.6750 Y5.7846
 X1.8343 Y5.8330
 X2.0000 Y5.8493
 X2.1657 Y5.8330
 X2.3250 Y5.7846
 X2.4718 Y5.7061
 X2.6005 Y5.6005
 X2.7061 Y5.4718
 X2.7846 Y5.3250
 X2.8330 Y5.1657
 X2.8493 Y5.0000
G0 Z25.0000
 X5.8493
G1 Z0.0000
 X5.8330 Y4.8343
 X5.7846 Y4.6750
 X5.7061 Y4.5282
 X5.6005 Y4.3995
 X5.4718 Y4.2939
 X5.3250 Y4.2154
 X5.1657 Y4.1670
 X5.0000 Y4.1507
 X4.8343 Y4.1670
 X4.6750 Y4.2154
 X4.5282 Y4.2939
 X4.3995 Y4.3995
 X4.2939 Y4.5282
 X4.2154 Y4.6750
 X4.1670 Y4.8343
 X4.1507 Y5.0000
 X4.1670 Y5.1657
 X4.2154 Y5.3250
 X4.2939 Y5.4718
 X4.3995 Y5.6005
 X4.5282 Y5.7061
 X4.6750 Y5.7846
 X4.8343 Y5.8330
 X5.0000 Y5.8493
 X5.1657 Y5.8330
 X5.3250 Y5.7846
 X5.4718 Y5.7061
 X5.6005 Y5.6005
 X5.7061 Y5.4718
 X5.7846 Y5.3250
 X5.8330 Y5.1657
 X5.8493 Y5.0000
G0 Z25.0000
 X8.8493
G1 Z0.0000
 X8.8330 Y4.8343
 X8.7846 Y4.6750
 X8.7061 Y4.5282
 X8.6005 Y4.3995
 X8.4718 Y4.2939
 X8.3250 Y4.2154
 X8.1657 Y4.1670
 X8.0000 Y4.1507
 X7.8343 Y4.1670
 X7.6750 Y4.2154
 X7.5282 Y4.2939
 X7.3995 Y4.3995
 X7.2939 Y4.5282
 X7.2154 Y4.6750
 X7.1670 Y4.8343
 X7.1507 Y5.0000
 X7.1670 Y5.1657
 X7.2154 Y5.3250
 X7.2939 Y5.4718
 X7.3995 Y5.6005
 X7.5282 Y5.7061
 X7.6750 Y5.7846
 X7.8343 Y5.8330
 X8.0000 Y5.8493
 X8.1657 Y5.8330
 X8.3250 Y5.7846
 X8.4718 Y5.7061
 X8.6005 Y5.6005
 X8.7061 Y5.4718
 X8.7846 Y5.3250
 X8.8330 Y5.1657
 X8.8493 Y5.0000
G0 Z25.0000
M5 (stop spindle)
G04 P0 (wait for 0 seconds)
G0 Z25.0000
M2 (end program)
